dist/img/logom.svg

<svg width="525" height="84" viewBox="0 0 525 84" fill="none" xmlns="http://www.w3.org/2000/svg">
<path d="M118.2 3.13373C107.533 6.46706 97.7998 15.0004 93.5332 24.6004C88.9998 35.0004 89.2665 49.4004 94.1998 59.5337C101.8 75.0004 114.466 81.5337 139.4 82.6004L155 83.4004V74.0671V64.7337L142.333 63.9337C123.266 62.8671 114.733 57.5337 111.666 45.2671C109.4 36.2004 115 26.0671 125 21.5337C129.666 19.4004 134.2 19.0004 161.4 19.0004H192.333V9.66706V0.333729L159.4 0.467062C130.466 0.467062 125.266 0.867062 118.2 3.13373Z" fill="black"/>
<path d="M223.533 3.13352C206.067 8.60019 195.8 23.0002 195.8 41.8002C195.8 54.3335 200.2 64.4669 208.6 71.6669C218.467 80.0669 226.333 82.2002 247.667 82.2002C263.8 82.2002 267.4 81.8002 273.8 79.2669C294.467 71.1335 304.6 50.4669 298.467 29.0002C296.6 22.8669 294.6 19.6669 288.467 13.5335C282.067 7.26686 279.267 5.40019 271.8 3.13352C259.4 -0.733142 235.4 -0.733142 223.533 3.13352ZM267.4 22.2002C274.067 25.5335 277.933 31.2669 278.733 39.1335C279.933 51.5335 272.867 60.2002 259.4 63.0002C249.667 65.1335 235.133 63.8002 228.333 60.3335C211.667 51.8002 212.733 29.5335 230.333 21.4002C237.667 18.0669 259.8 18.4669 267.4 22.2002Z" fill="black"/>
<path d="M0.333252 41.667V81.667H41.6666H82.9999V72.3337V63.0003H52.3333H21.6666V57.0003V51.0003H52.3333H82.9999V41.667V32.3337H52.3333H21.6666V26.3337V20.3337H52.3333H82.9999V11.0003V1.66699H41.6666H0.333252V41.667Z" fill="black"/>
<path d="M305.667 41.667V81.667H316.333H327V41.667V1.66699H316.333H305.667V41.667Z" fill="black"/>
<path d="M353.133 3.13365C340.733 6.06699 334.467 13.667 334.333 25.667C334.333 35.4003 337.8 41.267 346.2 45.5337C352.2 48.6003 354.467 48.867 377.267 49.5337C399.667 50.2003 402.067 50.6003 403.8 52.867C406.067 56.067 406.067 56.6003 403.8 59.8003C402.067 62.2003 399.8 62.3337 369.8 62.7337L337.667 63.1337V72.467V81.667H367.4C400.067 81.667 409.267 80.3337 417.267 74.2003C423.267 69.667 425.667 64.467 425.667 56.2003C425.667 46.6003 421.8 40.2003 413.133 35.5337C406.6 31.9337 405.4 31.8003 382.333 31.0003C369.133 30.6003 357.533 29.8003 356.733 29.267C354.2 27.667 354.733 23.267 357.533 21.667C359.133 20.867 372.067 20.3337 390.2 20.3337H420.333V11.0003V1.66699L389.4 1.80032C372.333 1.93365 355.933 2.46699 353.133 3.13365Z" fill="black"/>
<path d="M427 11.0003V20.3337H445.667H464.333V51.0003V81.667H475H485.667V51.0003V20.3337H505H524.333V11.0003V1.66699H475.667H427V11.0003Z" fill="black"/>
<path d="M146.467 53.9337C152.2 60.067 161 68.7337 165.8 73.267L174.6 81.667H188.2H201.667L181.933 62.3337L162.333 43.1337L149.133 43.0003H135.933L146.467 53.9337Z" fill="black"/>
</svg>

<svg width="525" height="84" fill="none" xmlns="http://www.w3.org/2000/svg"><path d="M118.2 3.134C107.533 6.467 97.8 15 93.533 24.6 89 35 89.266 49.4 94.2 59.534c7.6 15.466 20.266 22 45.2 23.066l15.6.8V64.734l-12.667-.8c-19.067-1.067-27.6-6.4-30.667-18.667C109.4 36.2 115 26.067 125 21.534 129.666 19.4 134.2 19 161.4 19h30.933V.334L159.4.467c-28.934 0-34.134.4-41.2 2.667zm105.333 0C206.067 8.6 195.8 23 195.8 41.8c0 12.534 4.4 22.667 12.8 29.867 9.867 8.4 17.733 10.533 39.067 10.533 16.133 0 19.733-.4 26.133-2.933 20.667-8.133 30.8-28.8 24.667-50.267-1.867-6.133-3.867-9.333-10-15.466-6.4-6.267-9.2-8.134-16.667-10.4-12.4-3.867-36.4-3.867-48.267 0zM267.4 22.2c6.667 3.334 10.533 9.067 11.333 16.933 1.2 12.4-5.866 21.067-19.333 23.867-9.733 2.133-24.267.8-31.067-2.666-16.666-8.534-15.6-30.8 2-38.934 7.334-3.333 29.467-2.933 37.067.8zM.333 41.667v40H83V63H21.667V51H83V32.334H21.667v-12H83V1.667H.333v40zm305.334 0v40H327v-80h-21.333v40zm47.466-38.533c-12.4 2.933-18.666 10.533-18.8 22.533 0 9.733 3.467 15.6 11.867 19.867 6 3.066 8.267 3.333 31.067 4 22.4.666 24.8 1.066 26.533 3.333 2.267 3.2 2.267 3.733 0 6.933-1.733 2.4-4 2.534-34 2.934l-32.133.4v18.533H367.4c32.667 0 41.867-1.333 49.867-7.467 6-4.533 8.4-9.733 8.4-18 0-9.6-3.867-16-12.534-20.666-6.533-3.6-7.733-3.734-30.8-4.534-13.2-.4-24.8-1.2-25.6-1.733-2.533-1.6-2-6 .8-7.6 1.6-.8 14.534-1.333 32.667-1.333h30.133V1.667L389.4 1.8c-17.067.134-33.467.667-36.267 1.334zM427 11v9.334h37.333v61.333h21.334V20.334h38.666V1.667H427V11z" fill="#000"/><path d="M146.467 53.934C152.2 60.067 161 68.734 165.8 73.267l8.8 8.4h27.067l-19.734-19.333-19.6-19.2-13.2-.134h-13.2l10.534 10.934z" fill="#000"/></svg>
